**harm	**harte	**timestamp	**phrase	**leadinstrument	**kern
*M4/4	*M4/4	*	*	*	*
*D:	*D:	*	*	*	*D:
1r;	N	0	.	r	1r;
=1	=1	=1	=1	=1	=1
*>A_intro	*>A_intro	*>A_intro	*>A_intro	*>A_intro	*>A_intro
2I	D:maj	0.325	newline	guitar	2D 2f# 2a
4Vf	A:maj/4	2.091	.	guitar	4A 4cc# 4ee
4I	D:maj	2.974	.	guitar	4D 4f# 4a
=2	=2	=2	=2	=2	=2
2V	A:sus4(b7)	3.857	.	guitar	2A 2cc# 2ee
2V7	A:7	5.622	.	guitar	2A 2cc# 2ee 2gg
=3	=3	=3	=3	=3	=3
2I	D:maj	7.388	.	guitar	2D 2f# 2a
4Vf	A:maj/4	9.154	.	guitar	4A 4cc# 4ee
4I	D:maj	10.037	.	guitar	4D 4f# 4a
=4	=4	=4	=4	=4	=4
2V	A:sus4(b7)	10.919	.	guitar	2A 2cc# 2ee
2V7	A:7	12.685	.	guitar	2A 2cc# 2ee 2gg
=5	=5	=5	=5	=5	=5
*>A_verse	*>A_verse	*>A_verse	*>A_verse	*>A_verse	*>A_verse
2I	D:maj	14.451	newline	voice	2D 2f# 2a
4Vf	A:maj/4	16.108	.	voice	4A 4cc# 4ee
4I	D:maj	16.937	.	voice	4D 4f# 4a
=6	=6	=6	=6	=6	=6
2V	A:sus4(b7)	17.766	.	voice	2A 2cc# 2ee
2V7	A:7	19.423	.	voice	2A 2cc# 2ee 2gg
=7	=7	=7	=7	=7	=7
1ii	E:min	21.08	newline	voice	1E 1g 1b
=8	=8	=8	=8	=8	=8
2V	A:sus4(b7)	24.318	.	voice	2A 2cc# 2ee
2V7	A:7	25.937	.	voice	2A 2cc# 2ee 2gg
=9	=9	=9	=9	=9	=9
2I	D:maj	27.556	newline	voice	2D 2f# 2a
4Vf	A:maj/4	29.21	.	voice	4A 4cc# 4ee
4I	D:maj	30.036	.	voice	4D 4f# 4a
=10	=10	=10	=10	=10	=10
2V	A:sus4(b7)	30.863	.	voice	2A 2cc# 2ee
2V7	A:7	32.517	.	voice	2A 2cc# 2ee 2gg
=11	=11	=11	=11	=11	=11
1ii	E:min	34.17	newline	voice	1E 1g 1b
=12	=12	=12	=12	=12	=12
*M2/4	*M2/4	*M2/4	*M2/4	*M2/4	*M2/4
2iib	E:min/b3	37.415	.	voice	2e 2G 2b
=13	=13	=13	=13	=13	=13
*M4/4	*M4/4	*M4/4	*M4/4	*M4/4	*M4/4
1V	A:maj	39.038	.	voice	1A 1cc# 1ee
=14	=14	=14	=14	=14	=14
2V	A:sus4	42.283	.	voice	2A 2cc# 2ee
2V	A:maj	43.906	.	voice	2A 2cc# 2ee
=15	=15	=15	=15	=15	=15
*>A_verse	*>A_verse	*>A_verse	*>A_verse	*>A_verse	*>A_verse
2I	D:maj	45.528	newline	voice	2D 2f# 2a
4Vf	A:maj/4	47.154	.	voice	4A 4cc# 4ee
4I	D:maj	47.967	.	voice	4D 4f# 4a
=16	=16	=16	=16	=16	=16
2V	A:sus4(b7)	48.78	.	voice	2A 2cc# 2ee
2V7	A:7	50.406	.	voice	2A 2cc# 2ee 2gg
=17	=17	=17	=17	=17	=17
1ii	E:min	52.032	newline	voice	1E 1g 1b
=18	=18	=18	=18	=18	=18
2V	A:sus4(b7)	55.25	.	voice	2A 2cc# 2ee
2V7	A:7	56.859	.	voice	2A 2cc# 2ee 2gg
=19	=19	=19	=19	=19	=19
2I	D:maj	58.468	newline	voice	2D 2f# 2a
4Vf	A:maj/4	60.097	.	voice	4A 4cc# 4ee
4I	D:maj	60.912	.	voice	4D 4f# 4a
=20	=20	=20	=20	=20	=20
2V	A:sus4(b7)	61.727	.	voice	2A 2cc# 2ee
2V7	A:7	63.356	.	voice	2A 2cc# 2ee 2gg
=21	=21	=21	=21	=21	=21
1ii	E:min	64.985	newline	voice	1E 1g 1b
=22	=22	=22	=22	=22	=22
*M2/4	*M2/4	*M2/4	*M2/4	*M2/4	*M2/4
2iib	E:min/b3	68.199	.	voice	2e 2G 2b
=23	=23	=23	=23	=23	=23
*M4/4	*M4/4	*M4/4	*M4/4	*M4/4	*M4/4
1V	A:maj	69.806	.	voice	1A 1cc# 1ee
=24	=24	=24	=24	=24	=24
2V	A:sus4	73.02	.	voice	2A 2cc# 2ee
2V	A:maj	74.627	.	voice	2A 2cc# 2ee
=25	=25	=25	=25	=25	=25
*>B_chorus	*>B_chorus	*>B_chorus	*>B_chorus	*>B_chorus	*>B_chorus
1I	D:maj	76.234	newline	voice	1D 1f# 1a
=26	=26	=26	=26	=26	=26
2ii	E:min	79.444	.	voice	2E 2g 2b
2IV	G:maj	81.049	.	voice	2G 2b 2dd
=27	=27	=27	=27	=27	=27
1I	D:maj	82.654	.	voice	1D 1f# 1a
=28	=28	=28	=28	=28	=28
2ii	E:min	85.864	.	voice	2E 2g 2b
2IV	G:maj	87.47	.	voice	2G 2b 2dd
=29	=29	=29	=29	=29	=29
1vi	B:min	89.075	newline	voice	1B 1dd 1ff#
=30	=30	=30	=30	=30	=30
1V	A:maj	92.267	.	voice	1A 1cc# 1ee
=31	=31	=31	=31	=31	=31
*>C_trans	*>C_trans	*>C_trans	*>C_trans	*>C_trans	*>C_trans
1I	D:maj	95.458	newline	synthesizer	1D 1f# 1a
=32	=32	=32	=32	=32	=32
2ii	E:min	98.697	.	synthesizer	2E 2g 2b
4IV	G:maj	100.316	.	synthesizer	4G 4b 4dd
4V	A:maj	101.126	.	synthesizer	4A 4cc# 4ee
=33	=33	=33	=33	=33	=33
*>A_verse	*>A_verse	*>A_verse	*>A_verse	*>A_verse	*>A_verse
2I	D:maj	101.935	newline	voice	2D 2f# 2a
4Vf	A:maj/4	103.549	.	voice	4A 4cc# 4ee
4I	D:maj	104.356	.	voice	4D 4f# 4a
=34	=34	=34	=34	=34	=34
2V	A:sus4(b7)	105.163	.	voice	2A 2cc# 2ee
2V7	A:7	106.777	.	voice	2A 2cc# 2ee 2gg
=35	=35	=35	=35	=35	=35
1ii	E:min	108.391	newline	voice	1E 1g 1b
=36	=36	=36	=36	=36	=36
2V	A:sus4(b7)	111.635	.	voice	2A 2cc# 2ee
2V7	A:7	113.257	.	voice	2A 2cc# 2ee 2gg
=37	=37	=37	=37	=37	=37
2I	D:maj	114.879	newline	voice	2D 2f# 2a
4Vf	A:maj/4	116.52	.	voice	4A 4cc# 4ee
4I	D:maj	117.341	.	voice	4D 4f# 4a
=38	=38	=38	=38	=38	=38
2V	A:sus4(b7)	118.161	.	voice	2A 2cc# 2ee
2V7	A:7	119.802	.	voice	2A 2cc# 2ee 2gg
=39	=39	=39	=39	=39	=39
1ii	E:min	121.444	newline	voice	1E 1g 1b
=40	=40	=40	=40	=40	=40
*M2/4	*M2/4	*M2/4	*M2/4	*M2/4	*M2/4
2iib	E:min/b3	124.628	.	voice	2e 2G 2b
=41	=41	=41	=41	=41	=41
*M4/4	*M4/4	*M4/4	*M4/4	*M4/4	*M4/4
1V	A:maj	126.22	.	voice	1A 1cc# 1ee
=42	=42	=42	=42	=42	=42
2V	A:sus4	129.405	.	voice	2A 2cc# 2ee
2V	A:maj	130.997	.	voice	2A 2cc# 2ee
=43	=43	=43	=43	=43	=43
*>B_chorus	*>B_chorus	*>B_chorus	*>B_chorus	*>B_chorus	*>B_chorus
1I	D:maj	132.589	newline	voice	1D 1f# 1a
=44	=44	=44	=44	=44	=44
2ii	E:min	135.784	.	voice	2E 2g 2b
2IV	G:maj	137.381	.	voice	2G 2b 2dd
=45	=45	=45	=45	=45	=45
1I	D:maj	138.978	.	voice	1D 1f# 1a
=46	=46	=46	=46	=46	=46
2ii	E:min	142.173	.	voice	2E 2g 2b
2IV	G:maj	143.77	.	voice	2G 2b 2dd
=47	=47	=47	=47	=47	=47
1vi	B:min	145.367	newline	voice	1B 1dd 1ff#
=48	=48	=48	=48	=48	=48
1V	A:maj	148.554	.	voice	1A 1cc# 1ee
=49	=49	=49	=49	=49	=49
*>B_chorus	*>B_chorus	*>B_chorus	*>B_chorus	*>B_chorus	*>B_chorus
1I	D:maj	151.741	newline	voice	1D 1f# 1a
=50	=50	=50	=50	=50	=50
2ii	E:min	154.913	.	voice	2E 2g 2b
2IV	G:maj	156.499	.	voice	2G 2b 2dd
=51	=51	=51	=51	=51	=51
1I	D:maj	158.085	.	voice	1D 1f# 1a
=52	=52	=52	=52	=52	=52
2ii	E:min	161.257	.	voice	2E 2g 2b
2IV	G:maj	162.843	.	voice	2G 2b 2dd
=53	=53	=53	=53	=53	=53
1vi	B:min	164.428	newline	voice	1B 1dd 1ff#
=54	=54	=54	=54	=54	=54
1V	A:maj	167.66	.	voice	1A 1cc# 1ee
=55	=55	=55	=55	=55	=55
*>B2_outro	*>B2_outro	*>B2_outro	*>B2_outro	*>B2_outro	*>B2_outro
1I	D:maj	170.892	newline	voice	1D 1f# 1a
=56	=56	=56	=56	=56	=56
2ii	E:min	174.128	.	voice	2E 2g 2b
4IV	G:maj	175.747	.	voice	4G 4b 4dd
4V	A:maj	176.556	.	voice	4A 4cc# 4ee
=57	=57	=57	=57	=57	=57
1I	D:maj	177.365	.	voice	1D 1f# 1a
=58	=58	=58	=58	=58	=58
2ii	E:min	180.601	.	voice	2E 2g 2b
4IV	G:maj	182.219	.	voice	4G 4b 4dd
4V	A:maj	183.028	.	voice	4A 4cc# 4ee
=59	=59	=59	=59	=59	=59
1I	D:maj	183.838	newline	voice	1D 1f# 1a
1r;	N	190.636	.	r	1r;
1r;	N	194.168	.	r	1r;
*-	*-	*-	*-	*-	*-
!!!OTL: Baby Can I Hold You
!!!COC: Tracy Chapman
!!!BillboardChartDate: 1989/01/14
!!!BillboardPeak: 48
!!!BillboardWeeksOnChart: 12
!!!SampleTargetRank: 52
!!!SampleActualRank: 52
!!!SampleID#: 0747
!!!RDF**harmony: **recip + pitch class of root + harmonic quality
!!!RDF**harte: Chris Harte's syntax, used by MIREX
!!!RDF**phrase: newline = linebreak in original McGill transcription
!!!RDF**timestamp: McGill audio timestamp in seconds
!!!RDF**leadinstrument: original McGill primary instrumentation annotation
!!!RDT: 2017/01/12/
!!!ENC: Nathaniel Condit-Schultz
!!!EST: Awating manual error checking and editing.
